flaticon/education/open-book-5.svg

<svg xmlns="http://www.w3.org/2000/svg" width="32" height="32" viewBox="0 0 24 24">
    <path d="M5.792969 5.589844L9.515625 5.589844C9.765625 5.589844 9.929688 5.425781 9.929688 5.175781 9.929688 4.929688 9.765625 4.765625 9.515625 4.765625L5.792969 4.765625C5.542969 4.765625 5.378906 4.929688 5.378906 5.175781 5.378906 5.425781 5.542969 5.589844 5.792969 5.589844zM4.136719 7.660156L9.515625 7.660156C9.765625 7.660156 9.929688 7.496094 9.929688 7.246094 9.929688 7 9.765625 6.832031 9.515625 6.832031L4.136719 6.832031C3.890625 6.832031 3.722656 7 3.722656 7.246094 3.722656 7.496094 3.890625 7.660156 4.136719 7.660156zM4.136719 9.730469L7.863281 9.730469C8.109375 9.730469 8.277344 9.5625 8.277344 9.316406 8.277344 9.066406 8.109375 8.902344 7.863281 8.902344L4.136719 8.902344C3.890625 8.902344 3.722656 9.066406 3.722656 9.316406 3.722656 9.5625 3.890625 9.730469 4.136719 9.730469zM9.515625 10.96875L5.792969 10.96875C5.542969 10.96875 5.378906 11.136719 5.378906 11.382812 5.378906 11.632812 5.542969 11.796875 5.792969 11.796875L9.515625 11.796875C9.765625 11.796875 9.929688 11.632812 9.929688 11.382812 9.929688 11.136719 9.765625 10.96875 9.515625 10.96875zM4.136719 13.867188L9.515625 13.867188C9.765625 13.867188 9.929688 13.703125 9.929688 13.453125 9.929688 13.207031 9.765625 13.039062 9.515625 13.039062L4.136719 13.039062C3.890625 13.039062 3.722656 13.207031 3.722656 13.453125 3.722656 13.703125 3.890625 13.867188 4.136719 13.867188zM4.136719 13.867188"/>
    <path d="M 22.757812 1.867188 L 22.015625 1.867188 C 21.019531 1.535156 20.027344 1.289062 19.035156 1.164062 L 18.660156 1.121094 C 17.542969 1 16.386719 1 15.269531 1.121094 L 14.898438 1.164062 L 14.898438 1.207031 C 13.90625 1.324219 12.953125 1.554688 12.003906 1.867188 C 8.84375 0.75 5.132812 0.765625 1.984375 1.867188 L 0 1.867188 L 0 20.074219 L 14.898438 20.074219 L 14.898438 22.96875 L 16.964844 21.398438 L 19.035156 22.96875 L 19.035156 20.074219 L 24 20.074219 L 24 1.867188 Z M 19.035156 17.21875 C 20.027344 17.34375 20.9375 17.589844 21.765625 17.964844 L 21.847656 18.003906 L 19.035156 18.003906 Z M 21.765625 2.652344 L 21.847656 2.695312 L 21.929688 2.695312 L 21.929688 17.136719 C 21.0625 16.722656 20.070312 16.472656 19.035156 16.390625 L 19.035156 13.867188 L 20.277344 13.867188 C 20.523438 13.867188 20.691406 13.703125 20.691406 13.453125 C 20.691406 13.207031 20.523438 13.039062 20.277344 13.039062 L 19.035156 13.039062 L 19.035156 9.730469 L 20.277344 9.730469 C 20.523438 9.730469 20.691406 9.5625 20.691406 9.316406 C 20.691406 9.066406 20.523438 8.902344 20.277344 8.902344 L 19.035156 8.902344 L 19.035156 5.589844 L 20.277344 5.589844 C 20.523438 5.589844 20.691406 5.425781 20.691406 5.175781 C 20.691406 4.929688 20.523438 4.765625 20.277344 4.765625 L 19.035156 4.765625 L 19.035156 1.996094 C 19.972656 2.121094 20.867188 2.367188 21.765625 2.652344 Z M 10.699219 18.003906 L 2.234375 18.003906 C 4.679688 16.929688 7.519531 16.953125 10.699219 18.003906 Z M 14.898438 17.574219 L 14.898438 18.003906 L 13.359375 18.003906 C 13.882812 17.835938 14.394531 17.691406 14.898438 17.574219 Z M 14.898438 4.765625 L 14.484375 4.765625 C 14.234375 4.765625 14.070312 4.929688 14.070312 5.175781 C 14.070312 5.425781 14.234375 5.589844 14.484375 5.589844 L 14.898438 5.589844 L 14.898438 6.832031 L 14.484375 6.832031 C 14.234375 6.832031 14.070312 7 14.070312 7.246094 C 14.070312 7.496094 14.234375 7.660156 14.484375 7.660156 L 14.898438 7.660156 L 14.898438 8.902344 L 14.484375 8.902344 C 14.234375 8.902344 14.070312 9.066406 14.070312 9.316406 C 14.070312 9.5625 14.234375 9.730469 14.484375 9.730469 L 14.898438 9.730469 L 14.898438 10.972656 L 14.484375 10.972656 C 14.234375 10.972656 14.070312 11.136719 14.070312 11.382812 C 14.070312 11.632812 14.234375 11.796875 14.484375 11.796875 L 14.898438 11.796875 L 14.898438 16.679688 C 14.109375 16.847656 13.28125 17.09375 12.414062 17.382812 L 12.414062 2.570312 C 13.242188 2.324219 14.070312 2.117188 14.898438 2.03125 Z M 2.191406 2.652344 C 5.132812 1.617188 8.605469 1.578125 11.585938 2.570312 L 11.585938 17.382812 C 11.441406 17.335938 11.296875 17.289062 11.152344 17.242188 C 7.871094 16.121094 4.894531 16.03125 2.3125 17.039062 C 2.230469 17.070312 2.152344 17.101562 2.070312 17.136719 L 2.070312 2.695312 L 2.152344 2.695312 Z M 0.828125 2.695312 L 1.242188 2.695312 L 1.242188 18.003906 L 0.828125 18.003906 Z M 0.828125 19.246094 L 0.828125 18.832031 L 14.898438 18.832031 L 14.898438 19.246094 Z M 18.207031 21.316406 L 16.964844 20.40625 L 15.722656 21.316406 L 15.722656 1.910156 C 16.550781 1.824219 17.378906 1.824219 18.207031 1.910156 Z M 23.171875 19.246094 L 19.035156 19.246094 L 19.035156 18.832031 L 23.171875 18.832031 Z M 22.757812 18.003906 L 22.757812 2.695312 L 23.171875 2.695312 L 23.171875 18.003906 Z M 22.757812 18.003906"/>
</svg>

<svg xmlns="http://www.w3.org/2000/svg" width="32" height="32" viewBox="0 0 24 24">
    <path d="M5.793 5.59h3.723c.25 0 .414-.164.414-.414 0-.246-.164-.41-.414-.41H5.793c-.25 0-.414.164-.414.41 0 .25.164.414.414.414zm0 0M4.137 7.66h5.379c.25 0 .414-.164.414-.414 0-.246-.164-.414-.414-.414h-5.38a.394.394 0 0 0-.413.414c0 .25.168.414.414.414zm0 0M4.137 9.73h3.726a.394.394 0 0 0 .414-.414c0-.25-.168-.414-.414-.414H4.137c-.246 0-.414.164-.414.414 0 .246.168.414.414.414zm0 0M9.516 10.969H5.793c-.25 0-.414.168-.414.414 0 .25.164.414.414.414h3.723c.25 0 .414-.164.414-.414 0-.246-.164-.414-.414-.414zm0 0M4.137 13.867h5.379c.25 0 .414-.164.414-.414 0-.246-.164-.414-.414-.414h-5.38a.394.394 0 0 0-.413.414c0 .25.168.414.414.414zm0 0"/>
    <path d="M22.758 1.867h-.742a15.617 15.617 0 0 0-2.98-.703l-.376-.043a15.868 15.868 0 0 0-3.39 0l-.372.043v.043a14.73 14.73 0 0 0-2.894.66C8.844.75 5.133.766 1.984 1.867H0v18.207h14.898v2.895l2.067-1.57 2.07 1.57v-2.895H24V1.867zM19.035 17.22a9.438 9.438 0 0 1 2.73.746l.083.039h-2.813zm2.73-14.567l.083.043h.082v14.442c-.867-.414-1.86-.664-2.895-.746v-2.524h1.242c.246 0 .414-.164.414-.414a.394.394 0 0 0-.414-.414h-1.242V9.73h1.242a.394.394 0 0 0 .414-.414c0-.25-.168-.414-.414-.414h-1.242V5.59h1.242c.246 0 .414-.164.414-.414 0-.246-.168-.41-.414-.41h-1.242v-2.77c.938.125 1.832.371 2.73.656zM10.7 18.004H2.234c2.446-1.074 5.286-1.05 8.465 0zm4.2-.43v.43h-1.54a19.498 19.498 0 0 1 1.54-.43zm0-12.808h-.415c-.25 0-.414.164-.414.41 0 .25.164.414.414.414h.414v1.242h-.414c-.25 0-.414.168-.414.414 0 .25.164.414.414.414h.414v1.242h-.414c-.25 0-.414.164-.414.414 0 .246.164.414.414.414h.414v1.243h-.414c-.25 0-.414.164-.414.41 0 .25.164.414.414.414h.414v4.883c-.789.168-1.617.414-2.484.703V2.57c.828-.246 1.656-.453 2.484-.539zM2.19 2.652c2.942-1.035 6.414-1.074 9.395-.082v14.813l-.434-.14c-3.28-1.122-6.257-1.212-8.84-.204-.082.031-.16.063-.242.098V2.695h.082zm-1.363.043h.414v15.309H.828zm0 16.551v-.414h14.07v.414zm17.379 2.07l-1.242-.91-1.242.91V1.91a12.002 12.002 0 0 1 2.484 0zm4.965-2.07h-4.137v-.414h4.137zm-.414-1.242V2.695h.414v15.309zm0 0"/>
</svg>
